assets/Person in suit levitating/Default/Flat/person_in_suit_levitating_flat_default.svg

<svg width="32" height="32" viewBox="0 0 32 32" fill="none" xmlns="http://www.w3.org/2000/svg">
<path d="M18.49 29.0027H13.49C13.21 29.0027 12.99 29.2227 12.99 29.5027C12.99 29.7827 13.21 30.0027 13.49 30.0027H18.49C18.77 30.0027 18.99 29.7827 18.99 29.5027C18.99 29.2227 18.77 29.0027 18.49 29.0027Z" fill="#CDC4D6"/>
<path d="M15.9899 27.2027C15.9899 27.6427 15.6299 28.0027 15.1899 28.0027C14.7499 28.0027 14.3899 27.6427 14.3899 27.2027V24.0027H17.59V27.2027C17.59 27.6427 17.23 28.0027 16.79 28.0027C16.35 28.0027 15.9899 27.6427 15.9899 27.2027Z" fill="#321B41"/>
<path d="M18.21 7.59718V8.21726C18.9972 8.85782 19.5 9.83274 19.5 10.9227V11.2539L19.4906 14.5027H19L18.2178 16.5627H13.7722L13 14.5027H12.5V10.9827C12.5 9.89047 12.9961 8.90317 13.7744 8.24861V7.62134C14.3955 7.19697 15.1406 6.94375 15.9449 6.93274C16.7826 6.92149 17.5624 7.16778 18.21 7.59718Z" fill="#6B438B"/>
<path d="M17.8301 8.75296H17.6401C17.6193 8.75156 17.5998 8.74268 17.5851 8.72797C17.5704 8.71326 17.5615 8.69372 17.5601 8.67296V7.59996C17.5595 7.48931 17.5232 7.3818 17.4565 7.2935C17.3898 7.20519 17.2964 7.14081 17.1901 7.10996C16.805 6.98977 16.4035 6.93006 16.0001 6.93296C15.5932 6.93097 15.1885 6.99169 14.8001 7.11296C14.6938 7.14381 14.6004 7.20819 14.5337 7.2965C14.467 7.3848 14.4307 7.49231 14.4301 7.60296V8.67296C14.4287 8.69372 14.4198 8.71326 14.4051 8.72797C14.3904 8.74268 14.3709 8.75156 14.3501 8.75296H14.1601C14.1395 8.75292 14.1192 8.7571 14.1003 8.76526C14.0814 8.77341 14.0644 8.78537 14.0503 8.80037C14.0363 8.81538 14.0254 8.83312 14.0185 8.85248C14.0116 8.87185 14.0087 8.89244 14.0101 8.91296C14.0265 9.58585 14.2188 10.2427 14.568 10.8182C14.9171 11.3936 15.4109 11.8676 16.0001 12.193C16.5869 11.8657 17.0783 11.391 17.4255 10.8158C17.7728 10.2406 17.9639 9.58469 17.9801 8.91296C17.9816 8.89241 17.9789 8.87176 17.972 8.85232C17.9651 8.83289 17.9543 8.81509 17.9402 8.80005C17.9261 8.78501 17.909 8.77306 17.8901 8.76496C17.8711 8.75685 17.8507 8.75277 17.8301 8.75296V8.75296Z" fill="#321B41"/>
<path d="M15.3599 12.9129C15.3599 13.0454 15.2524 13.1529 15.1199 13.1529C14.9873 13.1529 14.8799 13.0454 14.8799 12.9129C14.8799 12.7803 14.9873 12.6729 15.1199 12.6729C15.2524 12.6729 15.3599 12.7803 15.3599 12.9129Z" fill="#321B41"/>
<path d="M15.3599 14.1528C15.3599 14.2854 15.2524 14.3928 15.1199 14.3928C14.9873 14.3928 14.8799 14.2854 14.8799 14.1528C14.8799 14.0203 14.9873 13.9128 15.1199 13.9128C15.2524 13.9128 15.3599 14.0203 15.3599 14.1528Z" fill="#321B41"/>
<path d="M15 7.30271V9.20271C15 10.2827 15.35 11.3327 16 12.2027C16.65 11.3427 17 10.2627 17 9.18271V7.28271L15 7.30271Z" fill="#E6E6E6"/>
<path d="M15.19 26.9527C14.96 26.9527 14.77 26.7627 14.77 26.5327V25.0027H15.61V26.5327C15.61 26.7627 15.42 26.9527 15.19 26.9527Z" fill="#E6E6E6"/>
<path d="M16.3701 26.5327C16.3701 26.7627 16.5601 26.9527 16.7901 26.9527C17.0201 26.9527 17.2101 26.7627 17.2101 26.5327V25.0027H16.3701V26.5327Z" fill="#E6E6E6"/>
<path d="M13.7701 14H12.5601V15.5727L13.7701 16.5727V14Z" fill="#E6E6E6"/>
<path d="M19.42 15.5727L18.21 16.5727V14.0127H19.42V15.5727Z" fill="#E6E6E6"/>
<path d="M13.4201 17.1527L13.7601 17.3127H13.7701V15.5627H12.5601V15.8027C12.5601 16.3827 12.8901 16.9127 13.4201 17.1527Z" fill="#FFC83D"/>
<path d="M18.55 17.1527L18.21 17.3127V15.5627H19.41V15.8027C19.41 16.3827 19.08 16.9127 18.55 17.1527Z" fill="#FFC83D"/>
<path d="M16 12.2028C16.2 11.9428 16.37 11.6628 16.51 11.3628L16.23 8.08276H15.76L15.49 11.3628C15.63 11.6528 15.8 11.9328 16 12.2028Z" fill="#6B438B"/>
<path d="M15.6699 9.21276H16.3199L16.2299 8.08276H15.7599L15.6699 9.21276Z" fill="#321B41"/>
<path d="M17 6.80273H16H15V7.74273C15 8.21273 15.2 8.67273 15.55 8.98273C15.58 9.01273 15.64 9.00273 15.66 8.97273L15.99 8.34273L16.32 8.97273C16.35 9.01273 16.4 9.01273 16.43 8.98273C16.79 8.67273 17 8.22273 17 7.74273V6.80273Z" fill="#F4F4F4"/>
<path d="M19.99 14.7227V10.9228C19.99 9.54278 19.286 8.32278 18.21 7.60278V15.0028H19.7184C19.8592 15.0128 19.99 14.8827 19.99 14.7227Z" fill="#533566"/>
<path d="M18.22 15.5627H13.77V25H18.22V15.5627Z" fill="#533566"/>
<path d="M12 10.932V14.7303C12 14.8898 12.12 15.0094 12.27 14.9994H13.78V7.62231C12.71 8.34009 12 9.55631 12 10.932Z" fill="#533566"/>
<path d="M15.99 8.32282C15.58 8.32282 15.24 7.99282 15.24 7.57282V6.64282C15.24 6.23282 15.57 5.89282 15.99 5.89282C16.4 5.89282 16.74 6.22282 16.74 6.64282V7.57282C16.74 7.99282 16.4 8.32282 15.99 8.32282Z" fill="#FCB100"/>
<path d="M18.1201 3.88281H13.8601V6.22295C13.8601 6.56295 14.0701 6.86295 14.3901 6.97295L15.0801 7.20295V6.06281H16.9001V7.20287L17.5901 6.96287C17.9101 6.85287 18.1201 6.55287 18.1201 6.21287L18.1201 3.88281Z" fill="#F1A11E"/>
<path d="M14.8201 5.39271C14.8201 5.72961 14.547 6.00271 14.2101 6.00271C13.8732 6.00271 13.6001 5.72961 13.6001 5.39271C13.6001 5.05582 13.8732 4.78271 14.2101 4.78271C14.547 4.78271 14.8201 5.05582 14.8201 5.39271Z" fill="#FDBB11"/>
<path d="M18.3802 5.39271C18.3802 5.72961 18.107 6.00271 17.7702 6.00271C17.4333 6.00271 17.1602 5.72961 17.1602 5.39271C17.1602 5.05582 17.4333 4.78271 17.7702 4.78271C18.107 4.78271 18.3802 5.05582 18.3802 5.39271Z" fill="#FDBB11"/>
<path d="M16.43 2.65283H15.61C14.7 2.65283 14.01 3.42283 14.11 4.36283L14.25 6.46283C14.35 7.17283 14.96 7.71283 15.68 7.71283H16.03H16.38C17.1 7.71283 17.71 7.18283 17.81 6.46283L17.94 4.36283C18.04 3.46283 17.34 2.65283 16.43 2.65283Z" fill="#FFC83D"/>
<path d="M14.6545 4.60638C14.6067 4.64268 14.5974 4.71081 14.6337 4.75856C14.6699 4.80618 14.7378 4.81555 14.7855 4.7796C14.7854 4.77965 14.7855 4.77964 14.7855 4.7796L14.7865 4.77889L14.7925 4.77469C14.7983 4.77076 14.8076 4.76474 14.8201 4.75739C14.8451 4.74267 14.8827 4.72285 14.931 4.704C15.0275 4.66627 15.1647 4.63311 15.3285 4.65082C15.3881 4.65726 15.4417 4.61415 15.4481 4.55452C15.4546 4.49489 15.4115 4.44132 15.3519 4.43488C15.1456 4.41258 14.9729 4.45442 14.8519 4.5017C14.7914 4.52535 14.7434 4.55052 14.71 4.57018C14.6932 4.58002 14.6801 4.58853 14.6708 4.59483L14.6597 4.60256L14.6563 4.605L14.6545 4.60638Z" fill="#D37034"/>
<path d="M17.3358 4.60633C17.3835 4.64262 17.3929 4.71081 17.3566 4.75856C17.3204 4.80618 17.2525 4.81555 17.2048 4.7796L17.2038 4.77889L17.1978 4.77469C17.192 4.77076 17.1827 4.76474 17.1702 4.75739C17.1452 4.74267 17.1076 4.72285 17.0593 4.704C16.9628 4.66627 16.8255 4.63311 16.6618 4.65082C16.6022 4.65726 16.5486 4.61415 16.5421 4.55452C16.5357 4.49489 16.5788 4.44132 16.6384 4.43488C16.8447 4.41258 17.0174 4.45442 17.1384 4.5017C17.1989 4.52535 17.2469 4.55052 17.2803 4.57018C17.2971 4.58002 17.3102 4.58853 17.3195 4.59483L17.3306 4.60256L17.334 4.605L17.3358 4.60633Z" fill="#D37034"/>
<path d="M15.8802 5.2828L15.6902 5.9128C15.6502 6.0328 15.7402 6.1628 15.8802 6.1628H16.1602C16.2902 6.1628 16.3902 6.0328 16.3502 5.9028L16.1602 5.2828C16.1202 5.1528 15.9202 5.1528 15.8802 5.2828Z" fill="#ED9200"/>
<path d="M15.9902 6.5128C15.7902 6.5128 15.6102 6.4628 15.4502 6.3828C15.4002 6.3528 15.3502 6.4128 15.3802 6.4628C15.5102 6.6728 15.7402 6.8028 15.9902 6.8028C16.2402 6.8028 16.4702 6.6728 16.6002 6.4728C16.6302 6.4228 16.5802 6.3628 16.5202 6.3928C16.3802 6.4628 16.1902 6.5128 15.9902 6.5128Z" fill="#990839"/>
<path d="M14.2109 3.57422L14.0426 3.88281H13.6399C13.4999 3.88281 13.3799 4.00281 13.3799 4.14281C13.3799 4.28281 13.4899 4.40281 13.6399 4.40281H18.3499C18.4899 4.40281 18.6099 4.29281 18.6099 4.14281C18.5999 4.00281 18.4899 3.88281 18.3499 3.88281H17.9371L17.7969 3.57422L17.92 3.26L17.85 2.6628C17.8 2.1728 17.29 1.8728 16.84 2.0628L16.33 2.2728C16.13 2.3528 15.91 2.3528 15.71 2.2728L15.15 2.0528C14.7 1.8728 14.2 2.1728 14.14 2.6528L14.07 3.26L14.2109 3.57422Z" fill="#533566"/>
<path d="M16.47 4.70288H17.7C17.77 4.70288 17.82 4.75288 17.82 4.82288V4.90288C17.82 4.93288 17.81 4.97288 17.79 4.99288C17.78 5.00288 17.77 5.01288 17.77 5.03288V5.42288C17.77 5.80288 17.46 6.10288 17.09 6.10288H16.84C16.46 6.10288 16.16 5.79288 16.16 5.42288V5.21288C16.16 5.14288 16.1 5.08288 16.03 5.08288C15.96 5.08288 15.9 5.14288 15.9 5.21288V5.42288C15.9 5.80288 15.59 6.10288 15.22 6.10288H14.97C14.59 6.10288 14.29 5.79288 14.29 5.42288V5.03288C14.29 5.02288 14.28 5.00288 14.26 4.99288C14.23 4.97288 14.21 4.94288 14.21 4.90288V4.82288C14.21 4.75288 14.26 4.70288 14.33 4.70288H15.57C15.68 4.70288 15.77 4.75288 15.84 4.83288C15.88 4.89288 15.95 4.92288 16.02 4.92288C16.09 4.92288 16.16 4.88288 16.2 4.83288C16.27 4.75288 16.36 4.70288 16.47 4.70288ZM15.19 5.97288C15.51 5.97288 15.77 5.71288 15.77 5.39288V5.13288C15.77 4.96288 15.63 4.82288 15.46 4.82288H14.72C14.55 4.82288 14.41 4.96288 14.41 5.13288V5.39288C14.41 5.71288 14.67 5.97288 14.99 5.97288H15.19ZM17.06 5.97288C17.38 5.97288 17.64 5.71288 17.64 5.39288V5.13288C17.64 4.96288 17.5 4.82288 17.33 4.82288H16.59C16.42 4.82288 16.28 4.96288 16.28 5.13288V5.39288C16.28 5.71288 16.54 5.97288 16.86 5.97288H17.06Z" fill="#533566"/>
<path d="M14.07 3.25269L13.99 3.88269H17.99L17.92 3.25269H14.07Z" fill="#6B438B"/>
<path d="M15.1899 5.973C15.5099 5.973 15.7699 5.713 15.7699 5.393V5.133C15.7699 4.963 15.6299 4.823 15.4599 4.823H14.7199C14.5499 4.823 14.4099 4.963 14.4099 5.133V5.393C14.4099 5.713 14.6699 5.973 14.9899 5.973H15.1899Z" fill="#321B41"/>
<path d="M17.06 5.973C17.38 5.973 17.64 5.713 17.64 5.393V5.133C17.64 4.963 17.5 4.823 17.33 4.823H16.59C16.42 4.823 16.28 4.963 16.28 5.133V5.393C16.28 5.713 16.54 5.973 16.86 5.973H17.06Z" fill="#321B41"/>
</svg>

<svg xmlns="http://www.w3.org/2000/svg" width="32" height="32" fill="none"><path fill="#CDC4D6" d="M18.49 29.003h-5c-.28 0-.5.22-.5.5s.22.5.5.5h5c.28 0 .5-.22.5-.5s-.22-.5-.5-.5Z"/><path fill="#321B41" d="M15.99 27.203c0 .44-.36.8-.8.8-.44 0-.8-.36-.8-.8v-3.2h3.2v3.2c0 .44-.36.8-.8.8-.44 0-.8-.36-.8-.8Z"/><path fill="#6B438B" d="M18.21 7.597v.62a3.481 3.481 0 0 1 1.29 2.706v.33l-.01 3.25H19l-.782 2.06h-4.446L13 14.503h-.5v-3.52c0-1.093.496-2.08 1.274-2.734V7.62a3.93 3.93 0 0 1 2.17-.688 3.987 3.987 0 0 1 2.266.664Z"/><path fill="#321B41" d="M17.83 8.753h-.19a.086.086 0 0 1-.08-.08V7.6a.513.513 0 0 0-.37-.49A3.9 3.9 0 0 0 16 6.933a3.961 3.961 0 0 0-1.2.18.513.513 0 0 0-.37.49v1.07a.086.086 0 0 1-.08.08h-.19a.15.15 0 0 0-.15.16 3.854 3.854 0 0 0 1.99 3.28 3.863 3.863 0 0 0 1.98-3.28.149.149 0 0 0-.15-.16ZM15.36 12.913a.24.24 0 1 1-.48 0 .24.24 0 0 1 .48 0ZM15.36 14.153a.24.24 0 1 1-.48 0 .24.24 0 0 1 .48 0Z"/><path fill="#E6E6E6" d="M15 7.303v1.9c0 1.08.35 2.13 1 3 .65-.86 1-1.94 1-3.02v-1.9l-2 .02ZM15.19 26.953c-.23 0-.42-.19-.42-.42v-1.53h.84v1.53c0 .23-.19.42-.42.42ZM16.37 26.533c0 .23.19.42.42.42.23 0 .42-.19.42-.42v-1.53h-.84v1.53ZM13.77 14h-1.21v1.573l1.21 1V14ZM19.42 15.573l-1.21 1v-2.56h1.21v1.56Z"/><path fill="#FFC83D" d="m13.42 17.153.34.16h.01v-1.75h-1.21v.24c0 .58.33 1.11.86 1.35ZM18.55 17.153l-.34.16v-1.75h1.2v.24c0 .58-.33 1.11-.86 1.35Z"/><path fill="#6B438B" d="M16 12.203c.2-.26.37-.54.51-.84l-.28-3.28h-.47l-.27 3.28c.14.29.31.57.51.84Z"/><path fill="#321B41" d="M15.67 9.213h.65l-.09-1.13h-.47l-.09 1.13Z"/><path fill="#F4F4F4" d="M17 6.803h-2v.94c0 .47.2.93.55 1.24.03.03.09.02.11-.01l.33-.63.33.63c.03.04.08.04.11.01.36-.31.57-.76.57-1.24v-.94Z"/><path fill="#533566" d="M19.99 14.723v-3.8c0-1.38-.704-2.6-1.78-3.32v7.4h1.508c.141.01.272-.12.272-.28ZM18.22 15.563h-4.45V25h4.45v-9.437ZM12 10.932v3.798c0 .16.12.28.27.27h1.51V7.621a3.988 3.988 0 0 0-1.78 3.31Z"/><path fill="#FCB100" d="M15.99 8.323c-.41 0-.75-.33-.75-.75v-.93a.749.749 0 1 1 1.5 0v.93c0 .42-.34.75-.75.75Z"/><path fill="#F1A11E" d="M18.12 3.883h-4.26v2.34c0 .34.21.64.53.75l.69.23v-1.14h1.82v1.14l.69-.24c.32-.11.53-.41.53-.75v-2.33Z"/><path fill="#FDBB11" d="M14.82 5.393a.61.61 0 1 1-1.22 0 .61.61 0 0 1 1.22 0ZM18.38 5.393a.61.61 0 1 1-1.22 0 .61.61 0 0 1 1.22 0Z"/><path fill="#FFC83D" d="M16.43 2.653h-.82c-.91 0-1.6.77-1.5 1.71l.14 2.1c.1.71.71 1.25 1.43 1.25h.7c.72 0 1.33-.53 1.43-1.25l.13-2.1c.1-.9-.6-1.71-1.51-1.71Z"/><path fill="#D37034" d="M14.655 4.606a.109.109 0 0 0 .13.174l.002-.001.005-.004a.777.777 0 0 1 .138-.07.841.841 0 0 1 .399-.054.109.109 0 0 0 .023-.216 1.059 1.059 0 0 0-.681.16l-.011.008-.004.002-.002.001ZM17.336 4.606a.109.109 0 0 1-.131.174l-.001-.001-.006-.004a.777.777 0 0 0-.139-.07.841.841 0 0 0-.397-.054.109.109 0 0 1-.024-.216 1.059 1.059 0 0 1 .681.16l.012.008.003.002.002.001Z"/><path fill="#ED9200" d="m15.88 5.283-.19.63c-.04.12.05.25.19.25h.28c.13 0 .23-.13.19-.26l-.19-.62c-.04-.13-.24-.13-.28 0Z"/><path fill="#990839" d="M15.99 6.513c-.2 0-.38-.05-.54-.13-.05-.03-.1.03-.07.08.13.21.36.34.61.34s.48-.13.61-.33c.03-.05-.02-.11-.08-.08-.14.07-.33.12-.53.12Z"/><path fill="#533566" d="m14.21 3.574-.167.309h-.403c-.14 0-.26.12-.26.26s.11.26.26.26h4.71c.14 0 .26-.11.26-.26-.01-.14-.12-.26-.26-.26h-.413l-.14-.309.123-.314-.07-.597a.731.731 0 0 0-1.01-.6l-.51.21a.83.83 0 0 1-.62 0l-.56-.22a.744.744 0 0 0-1.01.6l-.07.607.14.314ZM16.47 4.703h1.23c.07 0 .12.05.12.12v.08c0 .03-.01.07-.03.09-.01.01-.02.02-.02.04v.39c0 .38-.31.68-.68.68h-.25a.68.68 0 0 1-.68-.68v-.21c0-.07-.06-.13-.13-.13s-.13.06-.13.13v.21c0 .38-.31.68-.68.68h-.25a.68.68 0 0 1-.68-.68v-.39c0-.01-.01-.03-.03-.04a.105.105 0 0 1-.05-.09v-.08c0-.07.05-.12.12-.12h1.24c.11 0 .2.05.27.13.04.06.11.09.18.09.07 0 .14-.04.18-.09.07-.08.16-.13.27-.13Zm-1.28 1.27c.32 0 .58-.26.58-.58v-.26c0-.17-.14-.31-.31-.31h-.74c-.17 0-.31.14-.31.31v.26c0 .32.26.58.58.58h.2Zm1.87 0c.32 0 .58-.26.58-.58v-.26c0-.17-.14-.31-.31-.31h-.74c-.17 0-.31.14-.31.31v.26c0 .32.26.58.58.58h.2Z"/><path fill="#6B438B" d="m14.07 3.253-.08.63h4l-.07-.63h-3.85Z"/><path fill="#321B41" d="M15.19 5.973c.32 0 .58-.26.58-.58v-.26c0-.17-.14-.31-.31-.31h-.74c-.17 0-.31.14-.31.31v.26c0 .32.26.58.58.58h.2ZM17.06 5.973c.32 0 .58-.26.58-.58v-.26c0-.17-.14-.31-.31-.31h-.74c-.17 0-.31.14-.31.31v.26c0 .32.26.58.58.58h.2Z"/></svg>
